X: 1
T: Gan Ainm
M: 6/8
L: 1/8
R: jig
K: E Dorian
|: e2 d |\
BEE Bcd | BEE B/c/dB | AFE ~F3 | ABd e2 d |
BEE Bcd | BEE E/F/GE | F2 D B,CD |[1 EGB :|[2 E2 F ||
|: G2 A |\
Bcd Be^d | e2 f gfe | fed eaa | b2 a gfe |
f2 g fed | Bed BEE | DB,A, B,EE |[1 D2 E :|[2 DFA |]
